X:11
T:Polska efter Magnus Olsson
R:polska L1
H:efter Magnus Olsson (1824-1920), Lycke, Arvika
A:V\"armland
Z:id:hn-L1-11
M:3/4
L:1/8
K:D
A | c>d e>f dc | A2 A<G E2 | (3FEF A>G EC | E>G E>C A,2 |
c>d e>f dc | A2 A>G E2 | (3FEF A>G EC | D2 D3 :|
|: A | c>d e>d e>^g | a2 a2 (3gag | f>f e2 cd | e>f d>c A2 |
c>d e>d e>^g | a2 a2 (3gag | f>f e>d cB/c/ | d2 d3 :|

